icons/file-zip-24.svg

<svg xmlns="http://www.w3.org/2000/svg" width="24" height="24" viewBox="0 0 24 24"><path d="M5 2.5a.5.5 0 00-.5.5v18a.5.5 0 00.5.5h1.75a.75.75 0 010 1.5H5a2 2 0 01-2-2V3a2 2 0 012-2h9.982a2 2 0 011.414.586l4.018 4.018A2 2 0 0121 7.018V21a2 2 0 01-2 2h-2.75a.75.75 0 010-1.5H19a.5.5 0 00.5-.5V7.018a.5.5 0 00-.146-.354l-4.018-4.018a.5.5 0 00-.354-.146H5z"/><path d="M11.5 15.75a.75.75 0 01.75-.75h1a.75.75 0 010 1.5h-1a.75.75 0 01-.75-.75zm.75-3.75a.75.75 0 000 1.5h1a.75.75 0 000-1.5h-1zm-.75-2.25a.75.75 0 01.75-.75h1a.75.75 0 010 1.5h-1a.75.75 0 01-.75-.75zM12.25 6a.75.75 0 000 1.5h1a.75.75 0 000-1.5h-1zm-.75-2.25a.75.75 0 01.75-.75h1a.75.75 0 010 1.5h-1a.75.75 0 01-.75-.75zM9.75 13.5a.75.75 0 000 1.5h1a.75.75 0 000-1.5h-1zM9 11.25a.75.75 0 01.75-.75h1a.75.75 0 010 1.5h-1a.75.75 0 01-.75-.75zm.75-3.75a.75.75 0 000 1.5h1a.75.75 0 000-1.5h-1zM9 5.25a.75.75 0 01.75-.75h1a.75.75 0 010 1.5h-1A.75.75 0 019 5.25z"/><path fill-rule="evenodd" d="M11 17a2 2 0 00-2 2v4.25c0 .414.336.75.75.75h3.5a.75.75 0 00.75-.75V19a2 2 0 00-2-2h-1zm-.5 2a.5.5 0 01.5-.5h1a.5.5 0 01.5.5v3.5h-2V19z"/></svg>

<svg xmlns="http://www.w3.org/2000/svg" width="24" height="24" viewBox="0 0 24 24">
  <defs/>
  <path d="M5,2.5 A0.5 0.5 0 0 0 4.5,3 L4.5,21 A0.5 0.5 0 0 0 5,21.5 L6.75,21.5 A0.75 0.75 0 0 1 6.75,23 L5,23 A2 2 0 0 1 3,21 L3,3 A2 2 0 0 1 5,1 L14.982,1 A2 2 0 0 1 16.396,1.586 L20.414,5.604 A2 2 0 0 1 21,7.018 L21,21 A2 2 0 0 1 19,23 L16.25,23 A0.75 0.75 0 0 1 16.25,21.5 L19,21.5 A0.5 0.5 0 0 0 19.5,21 L19.5,7.018 A0.5 0.5 0 0 0 19.354,6.664 L15.336,2.646 A0.5 0.5 0 0 0 14.982,2.5 L5,2.5 Z"/>
  <path d="M11.5,15.75 A0.75 0.75 0 0 1 12.25,15 L13.25,15 A0.75 0.75 0 0 1 13.25,16.5 L12.25,16.5 A0.75 0.75 0 0 1 11.5,15.75 Z M12.25,12 A0.75 0.75 0 0 0 12.25,13.5 L13.25,13.5 A0.75 0.75 0 0 0 13.25,12 L12.25,12 Z M11.5,9.75 A0.75 0.75 0 0 1 12.25,9 L13.25,9 A0.75 0.75 0 0 1 13.25,10.5 L12.25,10.5 A0.75 0.75 0 0 1 11.5,9.75 Z M12.25,6 A0.75 0.75 0 0 0 12.25,7.5 L13.25,7.5 A0.75 0.75 0 0 0 13.25,6 L12.25,6 Z M11.5,3.75 A0.75 0.75 0 0 1 12.25,3 L13.25,3 A0.75 0.75 0 0 1 13.25,4.5 L12.25,4.5 A0.75 0.75 0 0 1 11.5,3.75 Z M9.75,13.5 A0.75 0.75 0 0 0 9.75,15 L10.75,15 A0.75 0.75 0 0 0 10.75,13.5 L9.75,13.5 Z M9,11.25 A0.75 0.75 0 0 1 9.75,10.5 L10.75,10.5 A0.75 0.75 0 0 1 10.75,12 L9.75,12 A0.75 0.75 0 0 1 9,11.25 Z M9.75,7.5 A0.75 0.75 0 0 0 9.75,9 L10.75,9 A0.75 0.75 0 0 0 10.75,7.5 L9.75,7.5 Z M9,5.25 A0.75 0.75 0 0 1 9.75,4.5 L10.75,4.5 A0.75 0.75 0 0 1 10.75,6 L9.75,6 A0.75 0.75 0 0 1 9,5.25 Z"/>
  <path d="M11,17 L12,17 C13.105,17 14,17.895 14,19 L14,23.25 C14,23.664 13.664,24 13.25,24 L9.75,24 C9.336,24 9,23.664 9,23.25 L9,19 C9,17.895 9.895,17 11,17 Z M10.5,19 L10.5,22.5 L12.5,22.5 L12.5,19 C12.5,18.724 12.276,18.5 12,18.5 L11,18.5 C10.724,18.5 10.5,18.724 10.5,19 Z"/>
</svg>
